X: 27738
T: Morning Star
R: reel
M: 4/4
K: Dmajor
D/E/|F F/D/ A A/D/|B2 F2|E3 D/E/|F F/D/ A A/D/|G2 F2|E2E/ F/E/D/B,//B,/C/:|
DF GF|:E3 E/E/|z/ E/E/ C/D/E/F|A,B,3|z/ B,/B,/A,/G,2|z/ B, B,/B,/A,/G,/B,/|A,/B,/D/F/:|E3 E/E/ z||

